X:459
T:The brown coffin
T:The brown chest
T:An comhra donn
R:Hornpipe
O:Ireland, England, Scotland
B:Ceol Rince 1
S:Various web abc files
S:My arrangement from various sources
Z:Transcription, arrangement, chords:Mike Long
M:4/4
L:1/8
K:D
FG|\
"D"ABAG FAde|fgfe dcdA|"G"B2dB "D"A2DE|"A"F2ED E2FG|\
"D"ABAG FAde|~f3e dcdA|
"G"BcdB "A"ABAG|"D"F2D2 D2:|\
|:fg|\
"D"agfd "G"gfec|"D"dcde fdAF|"G"G2BG "D"F2AF|
"A"EDEF E2fg|\
"D"agfd "G"gfec|"D"dcde fdAF|"G"G2BG "A"FA (3(EFG)|"D"F2~D2 D2:|
